markup/public/images/logo-white.svg

<svg width="190" height="42" viewBox="0 0 190 42" fill="none" xmlns="http://www.w3.org/2000/svg">
<g clip-path="url(#clip0)">
<path d="M18.5847 4.60976L14.0164 0C5.81421 3.17561 0 11.0634 0 20.2829C0 30.4244 7.06011 39.0293 16.612 41.3854C25.4372 30.7317 25.9563 15.6732 18.5847 4.60976Z" fill="#F9A536"/>
<path d="M19.7268 41.795C20.0383 41.795 20.2459 41.8975 20.5574 41.8975C24.8142 39.9511 28.4481 36.878 31.0437 32.7804C33.5355 28.7853 34.6776 24.3804 34.5738 19.8731L29.9017 15.1609C31.7705 25.0975 28.1366 35.5463 19.7268 41.795Z" fill="white"/>
<path d="M18.0657 41.5903H18.1695C27.0985 35.239 30.94 24.1756 28.4482 13.9317L21.8034 7.27319C27.0985 18.2342 26.0602 31.6537 18.0657 41.5903Z" fill="white"/>
<path d="M40.6995 25.3022C39.5574 30.4242 36.8579 34.9315 32.8087 38.4144C31.6667 39.4388 30.4208 40.3608 29.071 41.0779C35.612 39.1315 40.9071 34.3169 43.3989 27.9657L40.6995 25.3022Z" fill="white"/>
<path d="M39.6613 24.5854L35.8198 20.7952C35.7159 25.2 34.47 29.5025 32.0821 33.2927C29.7979 36.9805 26.4755 40.0537 22.7378 42C23.6722 42 24.5028 41.8976 25.3334 41.7952C32.6012 38.9269 38.1039 32.4732 39.6613 24.5854Z" fill="white"/>
<path d="M62.1915 28.9902C60.0111 28.3756 58.4538 27.6585 57.4155 26.7366C56.3773 25.8146 55.962 24.6878 55.962 23.3561C55.962 21.8195 56.5849 20.5902 57.727 19.6683C58.9729 18.6439 60.5303 18.2341 62.5029 18.2341C63.8527 18.2341 64.9947 18.439 66.033 18.9512C67.0712 19.4634 67.9018 20.1805 68.421 21C69.0439 21.9219 69.2516 22.8439 69.2516 23.8683H66.6559C66.6559 22.7414 66.2406 21.8195 65.5139 21.2049C64.7871 20.5902 63.7488 20.1805 62.3991 20.1805C61.1532 20.1805 60.2188 20.4878 59.492 21C58.7652 21.5122 58.4538 22.3317 58.4538 23.2536C58.4538 24.0732 58.7652 24.6878 59.492 25.2C60.115 25.7122 61.257 26.2244 62.9182 26.6341C64.4756 27.0439 65.8253 27.5561 66.6559 28.0683C67.5904 28.5805 68.2133 29.1951 68.6286 29.9122C69.0439 30.6293 69.2516 31.4488 69.2516 32.4732C69.2516 34.0097 68.6286 35.239 67.3827 36.161C66.1368 37.0829 64.5794 37.5951 62.5029 37.5951C61.1532 37.5951 59.9073 37.3902 58.7652 36.878C57.6232 36.3658 56.6887 35.6488 56.0658 34.8293C55.4428 34.0097 55.1313 32.9854 55.1313 31.8585H57.727C57.727 32.9854 58.1423 33.9073 58.9729 34.6244C59.8035 35.239 60.9456 35.6488 62.3991 35.6488C63.7488 35.6488 64.7871 35.3414 65.5139 34.8293C66.2406 34.3171 66.5521 33.6 66.5521 32.5756C66.5521 31.6536 66.2406 30.9366 65.5139 30.4244C65.0986 29.9122 63.8527 29.5024 62.1915 28.9902Z" fill="white"/>
<path d="M75.481 19.8732V23.2537H78.1804V25.0976H75.481V33.8049C75.481 34.4195 75.5848 34.8293 75.7925 35.0342C76.0001 35.3415 76.4154 35.4439 77.0384 35.4439C77.3498 35.4439 77.6613 35.3415 78.1804 35.239V37.1854C77.5575 37.3903 76.9345 37.4927 76.3116 37.4927C75.1695 37.4927 74.4427 37.1854 73.8198 36.4683C73.3007 35.8537 72.9892 34.9317 72.9892 33.7025V24.9951H70.3936V23.1512H72.9892V19.7708H75.481V19.8732Z" fill="white"/>
<path d="M80.1531 30.2193C80.1531 28.7852 80.4646 27.5559 80.9837 26.5315C81.5029 25.4047 82.3335 24.5852 83.2679 23.9705C84.3061 23.3559 85.3444 23.0486 86.5903 23.0486C88.563 23.0486 90.1204 23.6632 91.2624 24.9949C92.5083 26.3266 93.0275 28.0681 93.0275 30.3218V30.5266C93.0275 31.8583 92.716 33.0876 92.1969 34.2144C91.6777 35.3413 90.951 36.1608 89.9127 36.7754C88.8745 37.39 87.8362 37.6974 86.4865 37.6974C84.5138 37.6974 82.9564 37.0827 81.8143 35.751C80.5684 34.4193 80.0493 32.6779 80.0493 30.4242V30.2193H80.1531ZM82.5411 30.5266C82.5411 32.0632 82.9564 33.3949 83.6832 34.3169C84.41 35.2388 85.4482 35.751 86.6941 35.751C87.94 35.751 88.8745 35.2388 89.7051 34.3169C90.4318 33.3949 90.8471 31.9608 90.8471 30.3218C90.8471 28.7852 90.4318 27.5559 89.7051 26.5315C88.9783 25.6096 87.94 25.0974 86.6941 25.0974C85.4482 25.0974 84.5138 25.6096 83.787 26.5315C82.9564 27.4535 82.5411 28.7852 82.5411 30.5266Z" fill="white"/>
<path d="M101.956 35.751C102.787 35.751 103.618 35.4437 104.241 34.9315C104.864 34.4193 105.279 33.8047 105.279 32.9852H107.563C107.563 33.8047 107.252 34.5218 106.732 35.3413C106.213 36.0583 105.486 36.673 104.656 37.0827C103.825 37.4925 102.891 37.6974 101.956 37.6974C99.9838 37.6974 98.4264 37.0827 97.2843 35.751C96.1422 34.4193 95.5193 32.6778 95.5193 30.5266V30.1169C95.5193 28.7852 95.7269 27.5559 96.2461 26.4291C96.7652 25.4047 97.492 24.4827 98.4264 23.9705C99.3608 23.3559 100.503 23.0486 101.853 23.0486C103.41 23.0486 104.76 23.5608 105.798 24.4827C106.836 25.4047 107.459 26.6339 107.459 28.1705H105.175C105.071 27.2486 104.76 26.5315 104.137 25.9169C103.514 25.3022 102.683 24.9949 101.853 24.9949C100.607 24.9949 99.6723 25.4047 98.9455 26.3266C98.2187 27.2486 97.9073 28.4779 97.9073 30.1169V30.5266C97.9073 32.1657 98.2187 33.3949 98.9455 34.3169C99.7761 35.2388 100.711 35.751 101.956 35.751Z" fill="white"/>
<path d="M114.415 30.9365L112.858 32.4731V37.3902H110.366V17.4146H112.858V29.5024L114.208 27.9658L118.672 23.356H121.683L116.077 29.2975L122.306 37.4926H119.399L114.415 30.9365Z" fill="white"/>
<path d="M135.596 29.7073H128.017V37.4926H124.071V18.439H136.634V21.6146H128.017V26.5316H135.596V29.7073Z" fill="white"/>
<path d="M137.672 30.2195C137.672 28.7853 137.984 27.556 138.503 26.4292C139.022 25.3024 139.853 24.4829 140.891 23.8682C141.929 23.2536 143.071 22.9463 144.525 22.9463C146.498 22.9463 148.055 23.5609 149.197 24.6878C150.443 25.8146 151.066 27.4536 151.273 29.3999V30.3219C151.273 32.4731 150.651 34.2146 149.405 35.5463C148.159 36.878 146.498 37.4926 144.421 37.4926C142.345 37.4926 140.683 36.878 139.437 35.5463C138.192 34.2146 137.569 32.4731 137.569 30.2195H137.672ZM141.514 30.5268C141.514 31.8585 141.722 32.8829 142.241 33.5999C142.76 34.317 143.487 34.6243 144.421 34.6243C145.355 34.6243 146.082 34.317 146.601 33.5999C147.12 32.8829 147.432 31.756 147.432 30.2195C147.432 28.8878 147.12 27.8634 146.601 27.1463C146.082 26.4292 145.355 26.0195 144.421 26.0195C143.487 26.0195 142.76 26.4292 142.241 27.1463C141.825 27.8634 141.514 28.9902 141.514 30.5268Z" fill="white"/>
<path d="M161.656 26.8388C161.137 26.7364 160.721 26.7364 160.306 26.7364C158.853 26.7364 157.918 27.2486 157.503 28.1705V37.39H153.661V23.3559H157.295L157.399 24.9949C158.126 23.6632 159.268 23.0486 160.618 23.0486C161.033 23.0486 161.448 23.151 161.76 23.2535L161.656 26.8388Z" fill="white"/>
<path d="M169.858 37.6975C167.782 37.6975 166.017 37.0829 164.771 35.7512C163.421 34.5219 162.798 32.7804 162.798 30.6292V30.2195C162.798 28.7853 163.11 27.556 163.629 26.4292C164.148 25.3024 164.978 24.4829 166.017 23.8682C167.055 23.2536 168.197 22.9463 169.547 22.9463C171.519 22.9463 173.077 23.5609 174.115 24.7902C175.257 26.0195 175.776 27.7609 175.776 30.0146V31.5512H166.64C166.743 32.4731 167.159 33.1902 167.782 33.8048C168.405 34.317 169.235 34.6243 170.17 34.6243C171.623 34.6243 172.765 34.1121 173.596 33.0878L175.465 35.1365C174.842 35.956 174.115 36.5707 173.181 36.9804C172.142 37.4926 171 37.6975 169.858 37.6975ZM169.443 26.1219C168.716 26.1219 168.093 26.3268 167.574 26.839C167.159 27.3512 166.847 28.0682 166.64 28.9902H171.935V28.6829C171.935 27.8634 171.727 27.2487 171.208 26.7365C170.793 26.3268 170.17 26.1219 169.443 26.1219Z" fill="white"/>
<path d="M183.355 27.556L185.743 23.356H189.792L185.743 30.3218L190 37.4925H185.847L183.251 33.0877L180.76 37.4925H176.607L180.864 30.3218L176.814 23.356H180.864L183.355 27.556Z" fill="white"/>
</g>
<defs>
<clipPath id="clip0">
<rect width="190" height="42" fill="white"/>
</clipPath>
</defs>
</svg>

<svg width="190" height="42" viewBox="0 0 190 42" fill="none" xmlns="http://www.w3.org/2000/svg"><g clip-path="url(#a)"><path d="M18.585 4.61L14.016 0C5.814 3.176 0 11.063 0 20.283c0 10.141 7.06 18.746 16.612 21.102 8.825-10.653 9.344-25.712 1.973-36.775z" fill="#F9A536"/><path d="M19.727 41.795c.311 0 .519.102.83.102 4.257-1.946 7.891-5.019 10.487-9.117 2.491-3.995 3.634-8.4 3.53-12.907l-4.672-4.712c1.868 9.937-1.765 20.385-10.175 26.634z" fill="#fff"/><path d="M18.066 41.59h.104c8.928-6.351 12.77-17.414 10.278-27.658l-6.645-6.659c5.296 10.961 4.257 24.38-3.737 34.317zM40.7 25.302c-1.143 5.122-3.842 9.63-7.891 13.112-1.142 1.025-2.388 1.947-3.738 2.664 6.541-1.947 11.836-6.761 14.328-13.112l-2.7-2.664z" fill="#fff"/><path d="M39.661 24.585l-3.841-3.79c-.104 4.405-1.35 8.707-3.738 12.498-2.284 3.688-5.607 6.76-9.344 8.707.934 0 1.765-.102 2.595-.205 7.268-2.868 12.77-9.322 14.328-17.21zm22.53 4.405c-2.18-.614-3.737-1.331-4.776-2.253-1.038-.922-1.453-2.05-1.453-3.38 0-1.537.623-2.767 1.765-3.689 1.246-1.024 2.803-1.434 4.776-1.434 1.35 0 2.492.205 3.53.717 1.038.512 1.869 1.23 2.388 2.049.623.922.83 1.844.83 2.868h-2.595c0-1.127-.415-2.048-1.142-2.663-.727-.615-1.765-1.024-3.115-1.024-1.246 0-2.18.307-2.907.819-.727.512-1.038 1.332-1.038 2.254 0 .82.311 1.434 1.038 1.946.623.512 1.765 1.024 3.426 1.434 1.558.41 2.907.922 3.738 1.434.934.512 1.557 1.127 1.973 1.844.415.717.623 1.537.623 2.561 0 1.537-.623 2.766-1.87 3.688-1.245.922-2.803 1.434-4.88 1.434-1.349 0-2.595-.205-3.737-.717s-2.076-1.23-2.7-2.049c-.622-.82-.934-1.844-.934-2.97h2.596c0 1.126.415 2.048 1.246 2.765.83.615 1.973 1.025 3.426 1.025 1.35 0 2.388-.308 3.115-.82.727-.512 1.038-1.229 1.038-2.253 0-.922-.311-1.64-1.038-2.152-.415-.512-1.661-.922-3.322-1.434zm13.29-9.117v3.38h2.7v1.845h-2.7v8.707c0 .614.104 1.024.312 1.23.207.307.622.409 1.245.409.312 0 .623-.102 1.142-.205v1.946a5.95 5.95 0 0 1-1.868.308c-1.142 0-1.87-.308-2.492-1.025-.52-.614-.83-1.536-.83-2.766v-8.707h-2.596v-1.844h2.595v-3.38h2.492v.102zm4.672 10.347c0-1.435.312-2.664.83-3.688.52-1.127 1.35-1.947 2.285-2.561 1.038-.615 2.076-.922 3.322-.922 1.973 0 3.53.614 4.672 1.946 1.246 1.332 1.766 3.073 1.766 5.327v.205a8.739 8.739 0 0 1-.831 3.687c-.52 1.127-1.246 1.947-2.284 2.561-1.038.615-2.077.922-3.426.922-1.973 0-3.53-.614-4.673-1.946-1.246-1.332-1.765-3.073-1.765-5.327v-.205h.104zm2.388.307c0 1.536.415 2.868 1.142 3.79.727.922 1.765 1.434 3.011 1.434 1.246 0 2.18-.512 3.011-1.434.727-.922 1.142-2.356 1.142-3.995 0-1.537-.415-2.766-1.142-3.79-.727-.922-1.765-1.435-3.01-1.435-1.247 0-2.181.513-2.908 1.434-.83.922-1.246 2.254-1.246 3.996zm19.415 5.224a3.66 3.66 0 0 0 2.285-.82c.623-.512 1.038-1.126 1.038-1.946h2.284c0 .82-.311 1.537-.831 2.356a5.703 5.703 0 0 1-2.076 1.742 6.126 6.126 0 0 1-2.7.614c-1.972 0-3.53-.614-4.672-1.946-1.142-1.332-1.765-3.073-1.765-5.224v-.41c0-1.332.208-2.561.727-3.688.52-1.024 1.246-1.946 2.18-2.458.935-.615 2.077-.922 3.427-.922 1.557 0 2.907.512 3.945 1.434 1.038.922 1.661 2.15 1.661 3.688h-2.284c-.104-.922-.415-1.64-1.038-2.254a3.244 3.244 0 0 0-2.284-.922c-1.246 0-2.18.41-2.907 1.332-.727.922-1.039 2.15-1.039 3.79v.41c0 1.639.312 2.868 1.038 3.79.831.922 1.766 1.434 3.011 1.434zm12.459-4.815l-1.557 1.537v4.917h-2.492V17.415h2.492v12.087l1.35-1.536 4.464-4.61h3.011l-5.606 5.941 6.229 8.196h-2.907l-4.984-6.557zm21.181-1.229h-7.579v7.786h-3.946V18.439h12.563v3.176h-8.617v4.917h7.579v3.175zm2.076.513c0-1.435.312-2.664.831-3.79.519-1.128 1.35-1.947 2.388-2.562 1.038-.614 2.18-.922 3.634-.922 1.973 0 3.53.615 4.672 1.742 1.246 1.127 1.869 2.766 2.076 4.712v.922c0 2.151-.622 3.893-1.868 5.224-1.246 1.332-2.907 1.947-4.984 1.947-2.076 0-3.738-.615-4.984-1.947-1.245-1.331-1.868-3.073-1.868-5.326h.103zm3.842.307c0 1.331.208 2.356.727 3.073.519.717 1.246 1.024 2.18 1.024.934 0 1.661-.307 2.18-1.024.519-.717.831-1.844.831-3.38 0-1.332-.312-2.357-.831-3.074-.519-.717-1.246-1.127-2.18-1.127-.934 0-1.661.41-2.18 1.127-.416.717-.727 1.844-.727 3.38zm20.142-3.688c-.519-.103-.935-.103-1.35-.103-1.453 0-2.388.513-2.803 1.434v9.22h-3.842V23.356h3.634l.104 1.639c.727-1.332 1.869-1.946 3.219-1.946.415 0 .83.102 1.142.204l-.104 3.586zm8.202 10.858c-2.076 0-3.841-.614-5.087-1.946-1.35-1.23-1.973-2.97-1.973-5.122v-.41c0-1.434.312-2.663.831-3.79.519-1.127 1.349-1.946 2.388-2.56 1.038-.615 2.18-.923 3.53-.923 1.972 0 3.53.615 4.568 1.844 1.142 1.23 1.661 2.97 1.661 5.225v1.536h-9.136c.103.922.519 1.64 1.142 2.254.623.512 1.453.82 2.388.82 1.453 0 2.595-.513 3.426-1.537l1.869 2.048c-.623.82-1.35 1.435-2.284 1.844-1.039.513-2.181.718-3.323.718zm-.415-11.575c-.727 0-1.35.205-1.869.717-.415.512-.727 1.23-.934 2.151h5.295v-.307c0-.82-.208-1.434-.727-1.947-.415-.41-1.038-.614-1.765-.614zm13.912 1.434l2.388-4.2h4.049l-4.049 6.966 4.257 7.17h-4.153l-2.596-4.404-2.491 4.404h-4.153l4.257-7.17-4.05-6.966h4.05l2.491 4.2z" fill="#fff"/></g><defs><clipPath id="a"><path fill="#fff" d="M0 0h190v42H0z"/></clipPath></defs></svg>
